icons/mini/arrow-up-tray.svg

<svg width="20" height="20" viewBox="0 0 20 20" fill="none" xmlns="http://www.w3.org/2000/svg">
<path d="M9.25 13.25C9.25 13.6642 9.58578 14 10 14C10.4142 14 10.75 13.6642 10.75 13.25L10.75 4.63642L13.7047 7.76497C13.9891 8.06611 14.4638 8.07967 14.765 7.79526C15.0661 7.51085 15.0797 7.03617 14.7953 6.73503L10.5453 2.23503C10.4036 2.08501 10.2063 2 10 2C9.79365 2 9.59642 2.08501 9.45474 2.23503L5.20474 6.73503C4.92033 7.03617 4.93389 7.51085 5.23503 7.79526C5.53617 8.07967 6.01085 8.06611 6.29526 7.76497L9.25 4.63642L9.25 13.25Z" fill="#0F172A"/>
<path d="M3.5 12.75C3.5 12.3358 3.16421 12 2.75 12C2.33579 12 2 12.3358 2 12.75V15.25C2 16.7688 3.23122 18 4.75 18H15.25C16.7688 18 18 16.7688 18 15.25V12.75C18 12.3358 17.6642 12 17.25 12C16.8358 12 16.5 12.3358 16.5 12.75V15.25C16.5 15.9404 15.9404 16.5 15.25 16.5H4.75C4.05964 16.5 3.5 15.9404 3.5 15.25V12.75Z" fill="#0F172A"/>
</svg>

<svg xmlns="http://www.w3.org/2000/svg" viewBox="0 0 20 20" fill="currentColor" aria-hidden="true" data-slot="icon">
  <path d="M9.25 13.25a.75.75 0 0 0 1.5 0V4.636l2.955 3.129a.75.75 0 0 0 1.09-1.03l-4.25-4.5a.75.75 0 0 0-1.09 0l-4.25 4.5a.75.75 0 1 0 1.09 1.03L9.25 4.636v8.614Z"/>
  <path d="M3.5 12.75a.75.75 0 0 0-1.5 0v2.5A2.75 2.75 0 0 0 4.75 18h10.5A2.75 2.75 0 0 0 18 15.25v-2.5a.75.75 0 0 0-1.5 0v2.5c0 .69-.56 1.25-1.25 1.25H4.75c-.69 0-1.25-.56-1.25-1.25v-2.5Z"/>
</svg>
